X: 1674
T: Sarı Gülüm Var Benim
C: (Anonim)
O: Turkey
F: http://compmusic.upf.edu/node/140
N: ussak--turku--aksak--sari_gulum--
N: makam= ussak
N: form= turku
N: usul= aksak = 9/8
M: 9/8
L: 1/16
K: C _2/4B   
Q: 1/4=168
%%MIDI tuningsystem comma53
e2f4e2 eddc d4 z2 | c2 ddd2 d2dc dec2 B2A2  | 
w:  ARANAĞME  |   | 
G2A4c2 B2A2 BAG2 G^3/4F | G6 GA_B3/2A/ G^FG4z2  | \
w:   |   | 
e2f4e2 e2d2 c2B2 A2 | 
w:   | 
A2 BcBA G2A8z2  | G2A6 A4 g^3/4fe4 | \
w:   |  Sa rı  gü lüm   | 
d4e4e{g}f edd4z2  | 
w:  var  be nim    | 
c2d6 d2a2 g2^3/4fe d2 | g2 ^3/4fge2 d2ed cBc2 B2A2  | \
w:  Ga rip  gön *  lüm   |  var  *  *  be *  nim    | 
G2A6 A4 g^3/4fe4 | 
w:  Sa rı  gü lüm   | 
d4e4e{g}f edd4z2  | c2d6 d2a2 g2^3/4fe d2 | \
w:  var  be nim    |  Ga rip  gön *  lüm   | 
g2 ^3/4fge2 d2ed cBc4z2  | 
w:  var  *  *  be *  nim    | 
e2f4e2 e2d2 d2c2 d2 | e2 fge2 d2dc dec2 B2A2  | \
w:  Ö lüm  *  var  *  ay  |  rı lık  *  *  *  yok    | 
G2A2 A2c2 B2A2 _BAG2 G^F | 
w:  Sa rı  e lâ  göz  | 
G6 GA_B3/2A/ G^FG4z2  | e2f2 f2e2 e2d2 c2B2 A2 | \
w:  lüm   SAZ  |  Böy *  le ce  kav *  lim   | 
A2 BcBA G2A8z2  | 
w:  var  *  *  be *  *  nim    | 
e2f4e2 e2d2 d2c2 d2 | e2 fge2 d2dc dec2 B2A2  | \
w:  Ö lüm  *  var  *  ay  |  rı lık  *  *  *  yok    | 
G2A2 A2c2 B2A2 _BAG2 G^F | 
w:  Sa rı  e lâ  göz  | 
G6 GA_B3/2A/ G^FG4z2  | e2f2 f2e2 e2d2 c2B2 A2 | \
w:  lüm   SAZ  |  Böy *  le ce  kav *  lim   | 
A2 BcBA G2A8z2  | 
w:  var  *  *  be *  *  nim    | 
e2f4e2 eddc d4 z2 | c2 ddd2 d2dc dec2 B2A2  | 
w:  ARANAĞME  |   | 
G2A4c2 B2A2 BAG2 G^3/4F | G6 GA_B3/2A/ G^FG4z2  | \
w:   |   | 
e2f4e2 e2d2 c2B2 A2 | 
w:   | 
A2 BcBA G2A8z2  | G2A6 A4 g^3/4fe4 | \
w:   |  Göz  gö ze  ba  | 
d4e4e{f}f edd4z2  | 
w:  kı şır ken    | 
c2d6 d2a2 g2^3/4fe d2 | g2 ^3/4fge2 d2ed cBc2 B2A2  | \
w:  E lim  değ *  di   |  e *  *  li *  ne    | 
G2A6 A4 g^3/4fe4 | 
w:  Göz  gö ze  ba  | 
d4e4e{f}f edd4z2  | c2d6 d2a2 g2^3/4fe d2 | \
w:  kı şır ken    |  E lim  değ *  di   | 
g2 ^3/4fge2 d2ed cBc4z2  | 
w:  e *  *  li *  ne    | 
e2f4e2 e2d2 d2c2 d2 | e2 fge2 d2dc dec2 B2A2  | \
w:  Bin_ â *  şık  *  fe  |  dâ  *  *  ol *  sun    | 
G2A2 A2c2 B2A2 _BAG2 G^F | 
w:  Sa rı  e lâ  göz  | 
G6 GA_B3/2A/ G^FG4z2  | e2f4e2 e2d2 c2B2 A2 | \
w:  lüm   SAZ  |  Sa çı *  nın  *  bir   | 
A2 BcBA G2A8z2  | 
w:  te *  *  li *  *  ne    | 
e2f4e2 e2d2 d2c2 d2 | e2 fge2 d2dc dec2 B2A2  | \
w:  Bin_ â *  şık  *  fe  |  dâ  *  *  ol *  sun    | 
G2A2 A2c2 B2A2 _BAG2 G^F | 
w:  Sa rı  e lâ  göz  | 
G6 GA_B3/2A/ G^FG4z2  | e2f4e2 e2d2 c2B2 A2 | \
w:  lüm   SAZ  |  Sa çı *  nın  *  bir   | 
A2 BcBA G2A8z2  | 
w:  te *  *  li *  *  ne    | 
|


